.local/share/icons/Gruvbox-Plus-Dark/panel/16/si-syncthing-6.svg

<svg xmlns="http://www.w3.org/2000/svg" width="16" height="16" version="1.1">
 <defs>
  <style id="current-color-scheme" type="text/css">
   .ColorScheme-Text { color:#ebdbb2; } .ColorScheme-Highlight { color:#458588; }
  </style>
 </defs>
 <path style="fill:currentColor" class="ColorScheme-Text" d="M 11.5,14.062178 A 7,7 0 0 0 14.062178,4.5 7,7 0 0 0 4.5000002,1.9378222 7,7 0 0 0 1.9378222,11.5 7,7 0 0 0 11.5,14.062178 Z m -1,-1.732051 A 5,5 0 0 1 4.2210516,11.271075 1.5,1.5 0 0 1 2.5538483,10.566987 1.5,1.5 0 0 1 3.037181,8.5603952 5,5 0 0 1 3.9803172,5.0298918 1.5,1.5 0 0 1 4.5669881,3.0538479 1.5,1.5 0 0 1 6.3638488,3.2793833 5,5 0 0 1 12.330127,5.5 a 5,5 0 0 1 0.04128,0.075402 1.5,1.5 0 0 1 1.574747,0.7236372 1.5,1.5 0 0 1 -0.549038,2.049038 A 1.5,1.5 0 0 1 12.966873,8.513032 5,5 0 0 1 10.5,12.330127 Z M 10,11.464102 A 4,4 0 0 0 11.975978,8.3905008 1.5,1.5 0 0 1 11.348076,7.799038 1.5,1.5 0 0 1 11.321187,7.7446511 L 8.7870981,8.1093874 A 1.5,1.5 0 0 1 8.0669875,9.1160254 1.5,1.5 0 0 1 6.3440649,8.9560547 L 5.3258081,9.5439455 A 1.5,1.5 0 0 1 5.0594017,10.703608 4,4 0 0 0 10,11.464102 Z M 11.178696,6.7556618 A 1.5,1.5 0 0 1 11.505641,6.0797602 4,4 0 0 0 11.464102,6 4,4 0 0 0 6.8058857,4.185639 1.5,1.5 0 0 1 6.4560546,5.325808 l 0.5878909,1.0182567 a 1.5,1.5 0 0 1 1.5720801,0.7229226 1.5,1.5 0 0 1 0.026887,0.054391 L 11.178696,6.7556618 Z M 5.8440651,8.0900292 A 1.5,1.5 0 0 1 6.1779203,6.8440649 L 5.5900291,5.825808 A 1.5,1.5 0 0 1 4.7167192,5.7233461 4,4 0 0 0 4.018983,8.3273316 1.5,1.5 0 0 1 4.8258062,8.6779236 L 5.8440651,8.0900292 Z"/>
</svg>

<svg width="16" height="16" version="1.1" xmlns="http://www.w3.org/2000/svg">
  <defs>
    <style id="current-color-scheme" type="text/css">.ColorScheme-Text { color:#ebdbb2; } .ColorScheme-Highlight { color:#458588; } .ColorScheme-NeutralText { color:#fe8019; } .ColorScheme-PositiveText { color:#689d6a; } .ColorScheme-NegativeText { color:#fb4934; }</style>
  </defs>
  <path class="ColorScheme-Text" d="m11.5 14.06a7 7 0 0 0 2.562-9.562 7 7 0 0 0-9.562-2.562 7 7 0 0 0-2.562 9.562 7 7 0 0 0 9.562 2.562zm-1-1.732a5 5 0 0 1-6.279-1.059 1.5 1.5 0 0 1-1.667-0.7041 1.5 1.5 0 0 1 0.4833-2.007 5 5 0 0 1 0.9431-3.531 1.5 1.5 0 0 1 0.5867-1.976 1.5 1.5 0 0 1 1.797 0.2255 5 5 0 0 1 5.966 2.221 5 5 0 0 1 0.04128 0.0754 1.5 1.5 0 0 1 1.575 0.7236 1.5 1.5 0 0 1-0.549 2.049 1.5 1.5 0 0 1-0.4302 0.165 5 5 0 0 1-2.467 3.817zm-0.5-0.866a4 4 0 0 0 1.976-3.074 1.5 1.5 0 0 1-0.6279-0.5915 1.5 1.5 0 0 1-0.02689-0.05439l-2.534 0.3647a1.5 1.5 0 0 1-0.7201 1.007 1.5 1.5 0 0 1-1.723-0.16l-1.018 0.5879a1.5 1.5 0 0 1-0.2664 1.16 4 4 0 0 0 4.941 0.7605zm1.179-4.708a1.5 1.5 0 0 1 0.3269-0.6759 4 4 0 0 0-0.04154-0.07976 4 4 0 0 0-4.658-1.814 1.5 1.5 0 0 1-0.3498 1.14l0.5879 1.018a1.5 1.5 0 0 1 1.572 0.7229 1.5 1.5 0 0 1 0.02689 0.05439l2.536-0.3657zm-5.335 1.334a1.5 1.5 0 0 1 0.3339-1.246l-0.5879-1.018a1.5 1.5 0 0 1-0.8733-0.1025 4 4 0 0 0-0.6977 2.604 1.5 1.5 0 0 1 0.8068 0.3506l1.018-0.5879z" fill="currentColor"/>
</svg>
